public/icons/trash_bin.svg

<svg width="17" height="19" viewBox="0 0 17 19" fill="none" xmlns="http://www.w3.org/2000/svg">
<path d="M6.75 15.4999C6.98206 15.4999 7.20462 15.4033 7.36872 15.2314C7.53281 15.0595 7.625 14.8264 7.625 14.5833V9.08325C7.625 8.84014 7.53281 8.60698 7.36872 8.43507C7.20462 8.26316 6.98206 8.16658 6.75 8.16658C6.51794 8.16658 6.29538 8.26316 6.13128 8.43507C5.96719 8.60698 5.875 8.84014 5.875 9.08325V14.5833C5.875 14.8264 5.96719 15.0595 6.13128 15.2314C6.29538 15.4033 6.51794 15.4999 6.75 15.4999ZM15.5 4.49992H12V3.58325C12 2.85391 11.7234 2.15443 11.2312 1.63871C10.7389 1.12298 10.0712 0.833252 9.375 0.833252H7.625C6.92881 0.833252 6.26113 1.12298 5.76884 1.63871C5.27656 2.15443 5 2.85391 5 3.58325V4.49992H1.5C1.26794 4.49992 1.04538 4.5965 0.881282 4.7684C0.717187 4.94031 0.625 5.17347 0.625 5.41659C0.625 5.6597 0.717187 5.89286 0.881282 6.06477C1.04538 6.23667 1.26794 6.33325 1.5 6.33325H2.375V16.4166C2.375 17.1459 2.65156 17.8454 3.14384 18.3611C3.63613 18.8769 4.30381 19.1666 5 19.1666H12C12.6962 19.1666 13.3639 18.8769 13.8562 18.3611C14.3484 17.8454 14.625 17.1459 14.625 16.4166V6.33325H15.5C15.7321 6.33325 15.9546 6.23667 16.1187 6.06477C16.2828 5.89286 16.375 5.6597 16.375 5.41659C16.375 5.17347 16.2828 4.94031 16.1187 4.7684C15.9546 4.5965 15.7321 4.49992 15.5 4.49992ZM6.75 3.58325C6.75 3.34014 6.84219 3.10698 7.00628 2.93507C7.17038 2.76316 7.39294 2.66659 7.625 2.66659H9.375C9.60706 2.66659 9.82962 2.76316 9.99372 2.93507C10.1578 3.10698 10.25 3.34014 10.25 3.58325V4.49992H6.75V3.58325ZM12.875 16.4166C12.875 16.6597 12.7828 16.8929 12.6187 17.0648C12.4546 17.2367 12.2321 17.3333 12 17.3333H5C4.76794 17.3333 4.54538 17.2367 4.38128 17.0648C4.21719 16.8929 4.125 16.6597 4.125 16.4166V6.33325H12.875V16.4166ZM10.25 15.4999C10.4821 15.4999 10.7046 15.4033 10.8687 15.2314C11.0328 15.0595 11.125 14.8264 11.125 14.5833V9.08325C11.125 8.84014 11.0328 8.60698 10.8687 8.43507C10.7046 8.26316 10.4821 8.16658 10.25 8.16658C10.0179 8.16658 9.79538 8.26316 9.63128 8.43507C9.46719 8.60698 9.375 8.84014 9.375 9.08325V14.5833C9.375 14.8264 9.46719 15.0595 9.63128 15.2314C9.79538 15.4033 10.0179 15.4999 10.25 15.4999Z" fill="none"/>
</svg>

<svg xmlns="http://www.w3.org/2000/svg" width="17" height="19" fill="none"><path d="M6.75 15.5a.855.855 0 0 0 .619-.269.94.94 0 0 0 .256-.648v-5.5a.94.94 0 0 0-.256-.648.855.855 0 0 0-.619-.268.855.855 0 0 0-.619.268.94.94 0 0 0-.256.648v5.5a.94.94 0 0 0 .256.648.855.855 0 0 0 .619.269Zm8.75-11H12v-.917c0-.73-.277-1.429-.769-1.944A2.566 2.566 0 0 0 9.375.833h-1.75c-.696 0-1.364.29-1.856.806A2.818 2.818 0 0 0 5 3.583V4.5H1.5a.855.855 0 0 0-.619.268.94.94 0 0 0-.256.649.94.94 0 0 0 .256.648.855.855 0 0 0 .619.268h.875v10.084c0 .729.277 1.428.769 1.944s1.16.806 1.856.806h7c.696 0 1.364-.29 1.856-.806a2.818 2.818 0 0 0 .769-1.944V6.333h.875a.855.855 0 0 0 .619-.268.94.94 0 0 0 .256-.648.94.94 0 0 0-.256-.649.855.855 0 0 0-.619-.268Zm-8.75-.917a.94.94 0 0 1 .256-.648.855.855 0 0 1 .619-.268h1.75c.232 0 .455.096.619.268a.94.94 0 0 1 .256.648V4.5h-3.5v-.917Zm6.125 12.834a.94.94 0 0 1-.256.648.855.855 0 0 1-.619.268H5a.855.855 0 0 1-.619-.268.94.94 0 0 1-.256-.648V6.333h8.75v10.084ZM10.25 15.5a.855.855 0 0 0 .619-.269.94.94 0 0 0 .256-.648v-5.5a.94.94 0 0 0-.256-.648.855.855 0 0 0-.619-.268.855.855 0 0 0-.619.268.94.94 0 0 0-.256.648v5.5a.94.94 0 0 0 .256.648.855.855 0 0 0 .619.269Z"/></svg>
